X: 11121
T: WHAT THE DEIL AILS YOU.
Q: "Reel."
%R: reel
B: W. Hamilton "Universal Tune-Book" Vol. 1 Glasgow 1844 p.112 #1
S: http://imslp.org/wiki/Hamilton's_Universal_Tune-Book_(Various)
Z: 2016 John Chambers <jc:trillian.mit.edu>
M: C
L: 1/8
K: Am
% - - - - - - - - - - - - - - - - - - - - - - - - -
e |\
c>BAg agec | defd gfed |\
c>BAg agec | defg e2d :: e |\
c>BAc E/E/E c2 | d>efd gfed |\
c>BAc E/E/E c2 | defg e2d :|
% - - - - - - - - - - - - - - - - - - - - - - - - -

%%sep 1 1 500
%%sep 1 1 500

